!!!!SEGMENT: pl-wtm--r-325-m--003_moniuszko-stanislaw--kontredanse-na-4-rece.krn
!!!cenid: 18xx:3029
!!!COM: Moniuszko, Stanisław
!!!COM-rismid: pe30008351
!!!CDT: 1819/05/05-1872/06/04
!!!CNT: Polish
!!!OTL: Kontredanse na 4 ręce
!!!PDT:
!!!AGN: Secular
!!!SMS-siglum: PL-Wtm
!!!SMS-shelfmark: R 325/M
!!!SMS-shelfwork: 003 G
!!!SMS-variant:
!!!SMS-altvar:
!!!NIFC-rismid: 1001094319
!!!URL-scan: http://repozytorium.nifc.pl/skany/pl-wtm-nut--r325m
!!!ONB-nifc: UWAGA: w zbiorze 6 kontredansów, numeracja plików zgodna ze źródłową
**kern	**kern	**dynam	**kern	**kern	**dynam
*part2	*part2	*part3	*part1	*part1	*part1
*staff4	*staff3	*	*staff2	*staff1	*
*clefF4	*clefF4	*	*clefG2	*clefG2	*
*>[A,B,C,A,D,E,A,D]	*>[A,B,C,A,D,E,A,D]	*	*>[A,B,C,A,D,E,A,D]	*>[A,B,C,A,D,E,A,D]	*
*>A	*>A	*	*>A	*>A	*
*k[f#c#g#]	*k[f#c#g#]	*	*k[f#c#g#]	*k[f#c#g#]	*
*A:	*A:	*	*A:	*A:	*
*M6/8	*M6/8	*	*M6/8	*M6/8	*
*	*	*	*	*8va	*
*all\middle or right	*all\middle or right	*	*all\middle or right	*all\middle or right	*
=1	=1	=1	=1	=1	=1
!!LO:TX:t=P:problem:niepewna interpretacja formy [A,B,C,A,D,E,A,D]
!	!	!	!	!LO:TX:t=P:problem:znaki przykluczowe:f#cc#g#	!
!LO:TX:t=P:problem:brak klucza, znaków i metrum	!	!	!LO:TX:t=P:problem:brak klucza, znaków i metrum	!LO:TX:a:t=A=:color=red	!
.	.	.	.	8qfff#/	ff
4AA 4AAA/	4e 4c# 4A 4E\	ff	(8eeL 8cc#\	(8eeeL 8ccc#\	.
.	.	.	8dd#X 8b#X\	8ddd#X 8bb#X\	.
!LO:TX:t=P:problem:do końca taktu główki nut niezapisane	!LO:TX:t=P:problem:do końca taktu główki nut niezapisane	!	!	!	!
8AA 8AAA/	8e 8c# 8A 8E\	.	8eeJ 8cc#\)	8eeeJ 8ccc#\	.
4AA 4AAA/	4e 4c# 4A 4E\	.	4ee 4cc# 4a^\	4cccc# 4eee 4ccc#^\)	.
8AA 8AAA/	8e 8c# 8A 8E\	.	8bb 8ee 8cc#\	8bbb 8eee 8ccc#'\	.
=2	=2	=2	=2	=2	=2
*rep	*rep	*	*	*	*
4AA 4AAA/	4e 4c# 4A 4E\	.	4bb 4ee 4cc#\	4bbb 4eee 4ccc#^\	.
8AA 8AAA/	8e 8c# 8A 8E\	.	8aa 8ee 8cc#\	8aaa 8eee 8ccc#'\	.
4AA 4AAA/	4e 4c# 4A 4E\	.	4aa 4ee 4cc#\	(4aaa 4eee 4ccc#^\	.
8AA 8AAA/	8e 8c# 8A 8E\	.	8ee 8cc# 8a\	8eee 8ccc#\)	.
*Xrep	*Xrep	*	*	*	*
=3	=3	=3	=3	=3	=3
.	.	.	.	8qfff#/	.
*	*	*	*^	*^	*
4GG# 4GGG#/	4e 4d 4B 4E\	.	(8ee/L	4dd 4b\	(8eee/L	4ddd 4bb\	.
.	.	.	8dd#X/	.	8ddd#X/	.	.
!LO:TX:t=P:problem:główki nut niezapisane	!LO:TX:t=P:problem:główki nut niezapisane	!	!	!	!	!	!
8GG# 8GGG#/	8e 8d 8B 8E\	.	8ee/J)	8ddn 8b\	8eee/J	8dddn 8bb\	.
!LO:TX:t=P:problem:główki nut niezapisane	!LO:TX:t=P:problem:główki nut niezapisane	!	!	!	!	!	!
4GG# 4GGG#/	4e 4d 4B 4E\	.	4ee 4dd 4b^\	4.ryy	4dddd 4eee 4ddd^\)	4.ryy	.
(8FF##X 8FFF##X/	[8e 8c# 8A#X [>8E\	.	(8aa#X 8ee 8a#X\	.	(16aaa#XLL 16eee^\	.	.
.	.	.	.	.	16cccc#\JJ	.	.
*	*	*	*v	*v	*	*	*
*	*	*	*	*v	*v	*
!!LO:LB:g=original
=4	=4	=4	=4	=4	=4
!	!	!	!LO:TX:t=P:problem:brak zakończenia łuku (łamanie systemu)	!LO:TX:t=P:problem:brak zakończenia łuku (łamanie systemu)	!
4GG# 4GGG#/)	4e] 4d 4B 4E\]	.	8bb 8ee 8b\)	8bbb 8eee\)	.
.	.	.	8r	8r	.
8EE/	8e 8E\	.	8ee\	8eee\	.
4D 4DD/	4e 4B 4G# 4E\	.	8ee\L	8eee\L	.
.	.	.	8ff# 8f#\	8fff#\	.
!LO:N:vis=4	!	!	!	!	!
8D 8DD/	8e 8B 8E\	.	8gg#J 8g#\	8ggg#\J	.
=5	=5	=5	=5	=5	=5
4C# 4CC#/	4e 4A 4E\	.	4aa 4a^\	4aaa^\	.
*	*clefG2	*	*	*	*
8r	8e 8c# 8A/	.	8gg#\	8ggg#\	.
4AA 4AAA/	(>4cc# 4e 4c#^/	.	8gg#^\L	(8ggg#^\L	.
.	.	.	8ff#\	8fff#\)	.
!LO:TX:t=P:problem:brak 8r	!	!	!	!	!
8ryy	8a 8e 8c#/)	.	8ee\J	8eee\J	.
=6	=6	=6	=6	=6	=6
.	.	.	8qff#/	8qfff#/	.
4BB 4BBB/	4a 4f# 4B/	.	(4ee^\	(4eee^\	.
!LO:TX:t=P:problem:do końca taktu główki nut niezapisane	!LO:TX:t=P:problem:główki nut niezapisane	!	!	!	!
8BB 8BBB/	8a 8f# 8B/	.	8dd#X\	8ddd#X\	.
4BB 4BBB/	4a 4f# 4d#X 4B/	.	8b\L)	8bbbL 8bb^\	.
.	.	.	8b\	(8bb\	.
8BB 8BBB/	8a 8f# 8B/	.	8cc#\J	8ccc#\J))	.
=7	=7	=7	=7	=7	=7
.	.	.	8qeen/	8qeee/	.
!LO:TX:b:t=8:note=dolna nuta zapisana za pomocą "8" u dołu	!	!	!	!	!
4EE 4EEE/	4a 4f# 4dn 4B/	.	8ddn\L	(8dddn\L	.
.	.	.	8cc#\	8ccc#\)	.
8EE/	8a 8f# 8d 8B/	.	8dd\J	8ddd'\J	.
!LO:TX:b:t=8:note=dolna nuta zapisana za pomocą "8" u dołu	!	!	!	!	!
4EE 4EEE/	4f# 4d 4B 4A/	.	4ff#^\	(4fff#^\	.
!	!	!	!	!LO:TX:a:t==B:color=red	!
8EE/	8g# 8e 8d 8B/	.	8ee\	8eee\ 8gg#	.
=8	=8	=8	=8	=8	=8
*>B	*>B	*	*>B	*>B	*
4AA 4AAA/	4a 4e 4c#/	.	[4.ee [>4.cc#\	[4.aa/)	.
*	*clefF4	*	*	*	*
8C#^/	8c#^\	.	.	.	.
=||	=||	=||	=||	=||	=||
*>C	*>C	*	*>C	*>C	*
8AA/L	(8A\L	>	8ee] 8cc#\]	8aa/]	.
*	*	*	*	*X8va	*
8GG#/	8G#\	.	8r	8r	.
8FF#/J	8F#\J)	]	8r	8r	.
*kcancel	*kcancel	*	*kcancel	*kcancel	*
!!LO:LB:g=original
=9	=9	=9	=9	=9	=9
*k[b-e-a-d-g-]	*k[b-e-a-d-g-]	*	*k[b-e-a-d-g-]	*k[b-e-a-d-g-]	*
*	*	*	*	*8va	*
!	!	!	!LO:TX:t=P:problem:kolejność kasowników:fnccngn	!LO:TX:t=P:problem:kolejność kasowników:fnccngn	!
8FFn/	4d- 4A- 4Fn\	pp	(8a-/L	(8aa-/L	pp
8r	.	.	8g-/	8gg-/	.
8r	8d- 8A- 8F\	.	8a-/J)	8aa-/J	.
4r	4d- 4A- 4F\	.	8dd- 8a-\	8fff 8ff\)	.
.	.	.	8r	8r	.
8r	8d- 8A- 8F\	.	8ee-\	8eee-\	.
=10	=10	=10	=10	=10	=10
2.r	4d- 4A- 4F\	.	(4ee-^\	(4eee-^\	.
!	!LO:TX:t=P:problem:do końca taktu główki nut niezapisane	!	!	!	!
.	8d- 8A- 8F\	.	8dd-\)	8ddd-\)	.
.	4d- 4A- 4F\	.	8dd-\	8ddd-\	.
.	.	.	8r	8r	.
.	8d- 8A- 8F\	.	8a-/	8aa-/	.
=11	=11	=11	=11	=11	=11
.	.	.	8qb-/	8qbb-/	.
2.r	4dn 4Bn 4A- 4F\	.	(8a-/L	(8aa-/L	.
.	.	.	8g-/	8gg-/	.
!	!LO:TX:t=P:problem:do końca taktu główki nut niezapisane	!	!	!	!
.	8d 8B 8A- 8F\	.	8a-/J)	8aa-/J	.
.	4d 4B 4A- 4F\	.	8a-/	8aaa- 8aa-\)	.
.	.	.	8r	8r	.
.	8d 8B 8A- 8F\	.	8aa- 8a-\	8aaa-\	.
=12	=12	=12	=12	=12	=12
!	!	!	!LO:N:vis=	!	!
8r	4e- 4c 4A- 4G-\	.	(4aa- 4a-^\	(4aaa-^\	.
8r	.	.	.	.	.
8G-\	8e- 8c 8A-\	.	8ggn\	8gggn\	.
4E-\	(4g- 4c 4A-\	.	8gg-X\L	8ggg-X\L	.
.	.	.	8ee-\	8eee-\	.
8G-\	8e- 8c 8A-\)	.	8cc\J)	8ccc\J)	.
!!LO:LB:g=original
=13	=13	=13	=13	=13	=13
4F\	(4d- 4A-^\	.	(>8a-/L	(8aa-/L	.
.	.	.	8g-/	8gg-/	.
8r	8c 8A- 8F\	.	8a-/J	8aa-/J	.
4r	4Bn 4A- 4F\	.	8f/)	8fff 8ff/)	.
.	.	.	8r	8r	.
8r	8c 8A- 8F\)	.	8ee-\	8eee-\	.
=14	=14	=14	=14	=14	=14
.	.	.	8qff/	8qfff/	.
2.r	(4c 4A- 4F\	.	(4ee-\	(4eee-\	.
.	8d- 8A- 8F\)	.	8dd-\)	8ddd-\)	.
.	.	.	8qee-/	8qeee-/	.
.	4d- 4A- 4F\	.	(4dd-\	(4ddd-\	.
.	8d- 8A- 8F\	.	8cc\)	8ccc\)	.
=15	=15	=15	=15	=15	=15
2.r	4dn 4Bn 4A- 4F^\	<	8cc-X\L	8ccc-X\L	.
.	.	.	16b-\L	(16bb-\L	<
.	.	.	16cc-\	16ccc-\	.
!	!LO:TX:t=P:problem:do końca taktu główki nut niezapisane	!	!	!	!
.	8d 8B 8A- 8F\	.	16dd-\	16ddd-\	.
.	.	.	16cc-\JJ	16ccc-\JJ	.
.	4d 4B 4A- 4F\	.	8a-/	8aaa- 8aa-\)	[
.	.	.	8r	8r	.
.	8d 8B 8A- 8F\	[	8aa- 8a-\	8aaa-\	.
=16	=16	=16	=16	=16	=16
*k[f#c#g#]	*k[f#c#g#]	*	*k[f#c#g#]	*k[f#c#g#]	*
!LO:TX:t=P:problem:brak znaków	!	!	!LO:TX:t=P:problem:brak znaków	!LO:TX:t=P:problem:znaki przykluczowe:f#cc#g#	!
!LO:TX:b:t=8:note=dolna nuta zapisana za pomocą "8" u dołu	!	!	!	!	!
[4.EE 4.EEE/	[((4.d 4.B 4.G# 4.E\	sf	(8gg#L 8g#\	(8ggg#\L	sf
.	.	.	8ff#\	8fff#\	.
.	.	.	8ee\J	8eee\J	.
8EE/]	8d\L]))	.	8dd\L	8ddd\L	.
8r	8B\	.	8b\)	8bb\)	.
!	!	!	!LO:TX:t=A=B:color=red	!	!
8r	8e\J	.	8ee'\J	8eee'\J	.
!!LO:PB:g=original
=17||	=17||	=17||	=17||	=17||	=17||
*>D	*>D	*	*>D	*>D	*
!	!LO:CL:ed	!	!	!	!
*	*clefG2	*	*	*	*
!	!	!	!	!LO:TX:t==de:color=blue	!
4.AA 4.AAA/	4.a 4.e 4.c#/	.	4.ee 4.cc#\	4.aa/	.
*	*	*	*	*X8va	*
*	*clefF4	*	*	*	*
=||	=||	=||	=||	=||	=||
*>E	*>E	*	*>E	*>E	*
*k[f#c#]	*k[f#c#]	*	*k[f#c#]	*k[f#c#]	*
*	*	*	*	*8va	*
!LO:TX:t=P:problem:brak znaków	!	!	!LO:TX:t=P:problem:brak znaków	!LO:TX:t=P:problem:znaki przykluczowe:gnf#cc#	!
4r	4r	.	8a^/	8aa^/	p
!	!	!	!LO:TX:t=P:problem:mixed beam	!LO:TX:b:t=legier.	!
.	.	.	(8f#/L	(16ff#/LL	.
.	.	.	.	16aa/	.
8r	8r	.	8dd\J)	16ddd/	.
.	.	.	.	16eee/JJ)	.
=18	=18	=18	=18	=18	=18
8D/	8r	.	4ff#\	4fff#\	.
8r	8dL 8A 8F#\	.	.	.	.
(8D/	8f#J 8d 8A\	.	(16aa^\LL	(16aaa^\LL	.
.	.	.	16ff#\JJ	16fff#\JJ	.
8AA/)	8r	.	4ee\)	4eee\)	.
8r	8eL 8c# 8G\	.	.	.	.
!	!LO:TX:t=P:problem:główki nut niezapisane	!	!	!	!
8AA/	8eJ 8c# 8G\	.	(16ff#^\LL	(16fff#^\LL	.
.	.	.	16ee\JJ	16eee\JJ	.
=19	=19	=19	=19	=19	=19
*	*	*	*^	*^	*
!	!	!	!LO:N:vis=	!	!	!	!
8BB/	8r	.	4.dd\)	4.ryy	4.ddd\)	4.ryy	.
8r	8dL 8B 8F#\	.	.	.	.	.	.
!	!LO:TX:t=P:problem:główki nut niezapisane	!	!	!	!	!	!
8BB'/	8dJ 8B 8F#\	.	.	.	.	.	.
(4FF#^/	8r	.	(<8dd/L	4a\	(8ddd/L	4aa\	.
.	8dL 8A\	.	8cc#/)	.	8ccc#/)	.	.
8GG/)	8dJ 8B\	.	8b/J	8g\	8bb/J	8gg\	.
=20	=20	=20	=20	=20	=20	=20	=20
8AA/	8r	.	(4dd^</	4.f#\	(4ddd^/	4.ff#\	.
8r	8dL 8A\	.	.	.	.	.	.
8AA/	8dJ 8A\	.	16cc#/LL	.	16ccc#/LL	.	.
.	.	.	16b/JJ)	.	16bb/JJ	.	.
4AA 4AAA^>/	8r	.	(4a^/	4.ryy	4aa^/	4.ryy	.
.	8c#L 8A 8E\	.	.	.	.	.	.
!	!LO:TX:t=P:problem:główki nut niezapisane	!	!	!	!	!	!
(8AA/	8c#J 8A 8E\	.	16g#X/LL	.	16gg#X/LL	.	.
.	.	.	16gn/JJ)	.	16ggn/JJ	.	.
*	*	*	*v	*v	*	*	*
*	*	*	*	*v	*v	*
*	*	*	*	*X8va	*
!!LO:LB:g=original
=21	=21	=21	=21	=21	=21
8DD/)	8r	.	4f#/	4f#/	.
8r	8dL 8A 8F#\	.	.	.	.
!	!LO:TX:t=P:problem:główki nut niezapisane	!	!	!	!
(8D/	8dJ 8A 8F#\	.	16g/LL	16g/LL	<
.	.	.	16g#X/JJ	16g#X/JJ	.
8AA/)	8r	.	16a\LL	16a\LL	.
.	.	.	16b\	16b\	.
8r	8eL 8c# 8A\	.	16cc#\	16cc#\	.
.	.	.	16dd\	16dd\	.
8AA'/	8gJ 8c# 8A\	.	16ee\	16ee\	.
.	.	.	16ee#X\JJ	16ee#X\JJ)	[
=22	=22	=22	=22	=22	=22
(8D^/L	8r	.	4ff#\	4ff#\	sf
8FF#/	8f#L 8d 8A\	.	.	.	.
8GG/J	8eJ 8d 8B\	.	(16bb^\LL	(16bb^\LL	pp
.	.	.	16aa\JJ	16aa\JJ	.
4AA/	8r	.	4ee\)	4ee\)	.
.	8eL 8c# 8A\	.	.	.	.
8AA#X/	8eJ 8c# 8Gn\	.	(16gg^\LL	(16gg^\LL	.
.	.	.	16ff#\JJ	16ff#\JJ	.
=23	=23	=23	=23	=23	=23
4BB/)	4d 4F#\	.	4dd\)	4dd\)	.
8r	(16B\LL	f	16b\LL	(16b^\LL	f
.	16c#\JJ	.	16cc#\JJ	16cc#\JJ	.
4r	8d\L)	.	8dd\L	8dd\L)	.
.	8d'\	.	8dd^\	8dd^\	.
8r	8f#'\J	.	8ff#^\J	8ff#^\J	.
=24	=24	=24	=24	=24	=24
2.r	(4e^\	.	(4ee^\	(4ee^\	.
.	16B\LL	pp	16b\LL	16b\LL	pp
.	16c#\JJ	.	16cc#\JJ	16cc#\JJ)	.
.	8d'\L)	.	8dd'\L)	8dd|\L	.
.	(16B\L	.	(16b\L	(16b|\L	.
.	16d\J	.	16dd\J	16dd\J	.
.	8f#\J)	.	8ff#\J)	8ff#\J)	.
=25	=25	=25	=25	=25	=25
8EE'/	8d 8B 8G#X^\	p	8ee^\	8ee^\	.
8r	(16E\LL	<	8r@	(16e/LL	<
.	16F#\	.	.	16f#/	.
8r	16G#\	.	8r@	16g#X/	.
.	16A\JJ	.	.	16a/JJ	.
4.r	16B\LL	.	4r@	16b\LL	.
.	16c#\	.	.	16cc#\	.
.	16d\	.	.	16dd\	.
.	16e\	[	.	16ee\	.
.	16g#X\	.	8r@	16gg#X\	.
!	!LO:TX:t=DC:color=blue	!	!	!	!
.	16f#\JJ)	.	.	16ff#\JJ)	[[
!!LO:TX:t=P:problem:bar:color=blue
==	==	==	==	==	==
*-	*-	*-	*-	*-	*-
!!!system-decoration: ([s1,s2][s3,s4])
!!!ENC: Katarzyna Serwa
!!!END: 2021-09-06
!!!ENC: Kamil Watkowski
!!!END: 2021-09-16
!!!RDF**kern: > = above
!!!RDF**kern: < = below
!!!RDF**kern: | = vertical stroke
!!!RDF**kern: @ = marked note, color=blue
